images/search-empty.svg

<svg width="100" height="71" viewBox="0 0 100 71" fill="none" xmlns="http://www.w3.org/2000/svg">
<mask id="path-1-inside-1_273_1223" fill="white">
<path d="M98.7481 56.4171C98.5906 56.2948 98.4229 56.1931 98.2502 56.1033L97.5014 50.8525C96.9235 46.8016 93.4352 43.7615 89.3756 43.7615C89.3594 43.7615 89.3428 43.7615 89.3268 43.7615C83.6174 43.7991 75.1154 43.2546 66.5129 40.5487C66.7213 39.935 66.533 39.2397 66.0096 38.8203L49.7537 25.7936L44.8547 1.25973C44.7084 0.526469 44.0658 -0.000976562 43.3193 -0.000976562C43.0805 -0.000976562 37.4277 0.0639757 33.6658 5.71641C33.5844 5.83868 33.5238 5.96878 33.4807 6.10221C32.7904 6.05154 32.0867 6.09967 31.3984 6.282C27.8186 7.23105 16.4889 11.1034 16.4889 11.1034C15.2838 11.5054 14.0287 11.7096 12.7586 11.7096H8.24629C4.62012 11.7096 1.67012 14.6648 1.67012 18.2968V52.2779C1.41504 52.4215 1.17617 52.5986 0.961914 52.8113C0.341797 53.4265 0 54.2451 0 55.1155V66.812C0 68.5994 1.45156 70.0534 3.23594 70.0534H29.9582C31.7426 70.0534 33.1941 68.5994 33.1941 66.812V66.031C34.9752 66.2963 36.7436 66.5681 38.4682 66.8332C49.2412 68.4893 59.417 70.0534 71.7117 70.0534C85.1317 70.0534 94.31 67.9254 97.6334 67.0106C99.0268 66.6272 99.9998 65.343 99.9998 63.888V58.9835C100 57.9713 99.5436 57.0359 98.7481 56.4171ZM89.3453 46.8984C89.3555 46.8984 89.3654 46.8984 89.3756 46.8984C91.8852 46.8984 94.0428 48.784 94.401 51.2962L95.0807 56.0626C90.8322 57.0827 82.7891 58.5519 71.7117 58.5519C59.6701 58.5519 49.6246 57.0066 38.9893 55.3704C37.9074 55.2039 36.8217 55.0371 35.7303 54.8713C38.9285 51.9323 46.0172 47.3179 57.5367 49.4506C59.5223 49.8182 61.5588 48.8902 62.6059 47.1424L64.894 43.3223C74.1143 46.3385 83.2621 46.934 89.3453 46.8984ZM42.0715 3.31434L45.9516 22.7473L41.3699 19.0759L39.3731 11.0748C38.9604 9.42085 37.9471 8.02066 36.5148 7.11152C38.3604 4.55235 40.6715 3.63773 42.0715 3.31434ZM4.80176 18.2968C4.80176 16.3942 6.34707 14.8463 8.24649 14.8463H12.7588C14.366 14.8463 15.9545 14.5883 17.4791 14.079L28.7707 10.3089L30.1648 17.292C30.4666 18.8032 30.0803 20.3534 29.1049 21.5451C28.1295 22.7369 26.6877 23.4203 25.1494 23.4203H13.2568C9.92403 23.4203 6.91758 24.8388 4.80176 27.1028V18.2968ZM4.80176 35.0262C4.80176 30.3561 8.59473 26.557 13.2568 26.557H25.1496C27.6301 26.557 29.9545 25.4549 31.5268 23.5335C33.099 21.6122 33.7221 19.1131 33.2357 16.6767L31.7865 9.41792L32.158 9.32479C33.0502 9.10137 33.9768 9.23949 34.7656 9.71353C35.5545 10.1878 36.1119 10.9412 36.3354 11.8352L38.4604 20.3499C38.5434 20.6831 38.7334 20.9797 39.0014 21.1943L45.0582 26.0479L42.2127 28.8982C41.6012 29.5107 41.6012 30.5038 42.2127 31.1162C42.5184 31.4223 42.9191 31.5755 43.3197 31.5755C43.7203 31.5755 44.1213 31.4225 44.4268 31.1162L47.5184 28.0194L49.3881 29.5178L46.6662 32.2442C46.0547 32.8568 46.0547 33.8498 46.6662 34.4622C46.9719 34.7684 47.3727 34.9215 47.7733 34.9215C48.1738 34.9215 48.5748 34.7686 48.8803 34.4622L51.8481 31.4894L53.7178 32.9878L51.1197 35.5902C50.5082 36.2028 50.5082 37.1959 51.1197 37.8082C51.4254 38.1144 51.8262 38.2676 52.2268 38.2676C52.6274 38.2676 53.0281 38.1146 53.3338 37.8082L56.1781 34.9591L58.0479 36.4575L55.5732 38.9363C54.9617 39.5488 54.9617 40.5419 55.5732 41.1542C55.8789 41.4604 56.2797 41.6136 56.6803 41.6136C57.0809 41.6136 57.4817 41.4606 57.7873 41.1542L60.5078 38.4292L62.9842 40.4137L59.9203 45.5288C59.5418 46.1605 58.8131 46.497 58.1055 46.3663C54.1844 45.6403 40.7256 44.0728 31.9158 54.303C23.6797 53.1059 14.9604 52.0753 4.80137 51.8908V35.0262H4.80176ZM96.8686 63.8882C96.8686 63.9361 96.8424 63.9755 96.8037 63.986C93.6029 64.8672 84.7508 66.9169 71.7121 66.9169C59.6563 66.9169 49.5951 65.3702 38.9434 63.7331C36.6356 63.3782 34.2494 63.0113 31.8533 62.6635C31.7783 62.6525 31.7035 62.6473 31.6287 62.6473C31.2549 62.6473 30.8904 62.7815 30.6041 63.0297C30.2605 63.3275 30.0629 63.7604 30.0629 64.2157V66.8124C30.0629 66.8701 30.0162 66.9169 29.9586 66.9169H3.23613C3.17852 66.9169 3.13184 66.8701 3.13184 66.8124V55.1159C3.13184 55.0881 3.14336 55.0625 3.16621 55.0398C3.18965 55.0163 3.21875 55.0061 3.24531 55.0052C16.8295 55.1353 27.8535 56.8311 38.5143 58.4711C49.2711 60.126 59.4315 61.6892 71.7119 61.6892C83.9639 61.6892 92.6592 59.9292 96.7518 58.8804C96.7678 58.8763 96.7943 58.8694 96.8276 58.8953C96.8684 58.927 96.8684 58.9684 96.8684 58.9841V63.8882H96.8686Z"/>
</mask>
<path d="M98.7481 56.4171C98.5906 56.2948 98.4229 56.1931 98.2502 56.1033L97.5014 50.8525C96.9235 46.8016 93.4352 43.7615 89.3756 43.7615C89.3594 43.7615 89.3428 43.7615 89.3268 43.7615C83.6174 43.7991 75.1154 43.2546 66.5129 40.5487C66.7213 39.935 66.533 39.2397 66.0096 38.8203L49.7537 25.7936L44.8547 1.25973C44.7084 0.526469 44.0658 -0.000976562 43.3193 -0.000976562C43.0805 -0.000976562 37.4277 0.0639757 33.6658 5.71641C33.5844 5.83868 33.5238 5.96878 33.4807 6.10221C32.7904 6.05154 32.0867 6.09967 31.3984 6.282C27.8186 7.23105 16.4889 11.1034 16.4889 11.1034C15.2838 11.5054 14.0287 11.7096 12.7586 11.7096H8.24629C4.62012 11.7096 1.67012 14.6648 1.67012 18.2968V52.2779C1.41504 52.4215 1.17617 52.5986 0.961914 52.8113C0.341797 53.4265 0 54.2451 0 55.1155V66.812C0 68.5994 1.45156 70.0534 3.23594 70.0534H29.9582C31.7426 70.0534 33.1941 68.5994 33.1941 66.812V66.031C34.9752 66.2963 36.7436 66.5681 38.4682 66.8332C49.2412 68.4893 59.417 70.0534 71.7117 70.0534C85.1317 70.0534 94.31 67.9254 97.6334 67.0106C99.0268 66.6272 99.9998 65.343 99.9998 63.888V58.9835C100 57.9713 99.5436 57.0359 98.7481 56.4171ZM89.3453 46.8984C89.3555 46.8984 89.3654 46.8984 89.3756 46.8984C91.8852 46.8984 94.0428 48.784 94.401 51.2962L95.0807 56.0626C90.8322 57.0827 82.7891 58.5519 71.7117 58.5519C59.6701 58.5519 49.6246 57.0066 38.9893 55.3704C37.9074 55.2039 36.8217 55.0371 35.7303 54.8713C38.9285 51.9323 46.0172 47.3179 57.5367 49.4506C59.5223 49.8182 61.5588 48.8902 62.6059 47.1424L64.894 43.3223C74.1143 46.3385 83.2621 46.934 89.3453 46.8984ZM42.0715 3.31434L45.9516 22.7473L41.3699 19.0759L39.3731 11.0748C38.9604 9.42085 37.9471 8.02066 36.5148 7.11152C38.3604 4.55235 40.6715 3.63773 42.0715 3.31434ZM4.80176 18.2968C4.80176 16.3942 6.34707 14.8463 8.24649 14.8463H12.7588C14.366 14.8463 15.9545 14.5883 17.4791 14.079L28.7707 10.3089L30.1648 17.292C30.4666 18.8032 30.0803 20.3534 29.1049 21.5451C28.1295 22.7369 26.6877 23.4203 25.1494 23.4203H13.2568C9.92403 23.4203 6.91758 24.8388 4.80176 27.1028V18.2968ZM4.80176 35.0262C4.80176 30.3561 8.59473 26.557 13.2568 26.557H25.1496C27.6301 26.557 29.9545 25.4549 31.5268 23.5335C33.099 21.6122 33.7221 19.1131 33.2357 16.6767L31.7865 9.41792L32.158 9.32479C33.0502 9.10137 33.9768 9.23949 34.7656 9.71353C35.5545 10.1878 36.1119 10.9412 36.3354 11.8352L38.4604 20.3499C38.5434 20.6831 38.7334 20.9797 39.0014 21.1943L45.0582 26.0479L42.2127 28.8982C41.6012 29.5107 41.6012 30.5038 42.2127 31.1162C42.5184 31.4223 42.9191 31.5755 43.3197 31.5755C43.7203 31.5755 44.1213 31.4225 44.4268 31.1162L47.5184 28.0194L49.3881 29.5178L46.6662 32.2442C46.0547 32.8568 46.0547 33.8498 46.6662 34.4622C46.9719 34.7684 47.3727 34.9215 47.7733 34.9215C48.1738 34.9215 48.5748 34.7686 48.8803 34.4622L51.8481 31.4894L53.7178 32.9878L51.1197 35.5902C50.5082 36.2028 50.5082 37.1959 51.1197 37.8082C51.4254 38.1144 51.8262 38.2676 52.2268 38.2676C52.6274 38.2676 53.0281 38.1146 53.3338 37.8082L56.1781 34.9591L58.0479 36.4575L55.5732 38.9363C54.9617 39.5488 54.9617 40.5419 55.5732 41.1542C55.8789 41.4604 56.2797 41.6136 56.6803 41.6136C57.0809 41.6136 57.4817 41.4606 57.7873 41.1542L60.5078 38.4292L62.9842 40.4137L59.9203 45.5288C59.5418 46.1605 58.8131 46.497 58.1055 46.3663C54.1844 45.6403 40.7256 44.0728 31.9158 54.303C23.6797 53.1059 14.9604 52.0753 4.80137 51.8908V35.0262H4.80176ZM96.8686 63.8882C96.8686 63.9361 96.8424 63.9755 96.8037 63.986C93.6029 64.8672 84.7508 66.9169 71.7121 66.9169C59.6563 66.9169 49.5951 65.3702 38.9434 63.7331C36.6356 63.3782 34.2494 63.0113 31.8533 62.6635C31.7783 62.6525 31.7035 62.6473 31.6287 62.6473C31.2549 62.6473 30.8904 62.7815 30.6041 63.0297C30.2605 63.3275 30.0629 63.7604 30.0629 64.2157V66.8124C30.0629 66.8701 30.0162 66.9169 29.9586 66.9169H3.23613C3.17852 66.9169 3.13184 66.8701 3.13184 66.8124V55.1159C3.13184 55.0881 3.14336 55.0625 3.16621 55.0398C3.18965 55.0163 3.21875 55.0061 3.24531 55.0052C16.8295 55.1353 27.8535 56.8311 38.5143 58.4711C49.2711 60.126 59.4315 61.6892 71.7119 61.6892C83.9639 61.6892 92.6592 59.9292 96.7518 58.8804C96.7678 58.8763 96.7943 58.8694 96.8276 58.8953C96.8684 58.927 96.8684 58.9684 96.8684 58.9841V63.8882H96.8686Z" fill="black" stroke="white" stroke-width="1.2" mask="url(#path-1-inside-1_273_1223)"/>
</svg>

<svg width="100" height="71" fill="none" xmlns="http://www.w3.org/2000/svg"><mask id="a" fill="#fff"><path d="M98.748 56.417a3.25 3.25 0 00-.498-.314l-.749-5.25c-.578-4.051-4.066-7.092-8.125-7.092h-.05c-5.709.038-14.21-.506-22.813-3.212a1.569 1.569 0 00-.503-1.729L49.754 25.794l-4.9-24.534A1.566 1.566 0 0043.32-.001c-.239 0-5.891.065-9.653 5.717a1.558 1.558 0 00-.185.386 6.311 6.311 0 00-2.083.18c-3.58.949-14.91 4.821-14.91 4.821-1.204.402-2.46.607-3.73.607H8.247c-3.626 0-6.576 2.955-6.576 6.587v33.98a3.3 3.3 0 00-.708.534A3.225 3.225 0 000 55.115v11.697a3.242 3.242 0 003.236 3.241h26.722a3.242 3.242 0 003.236-3.241v-.781c1.781.265 3.55.537 5.274.802 10.773 1.656 20.949 3.22 33.244 3.22 13.42 0 22.598-2.128 25.921-3.042A3.24 3.24 0 00100 63.888v-4.904a3.228 3.228 0 00-1.252-2.567zm-9.403-9.519h.03c2.51 0 4.668 1.886 5.026 4.398l.68 4.767c-4.249 1.02-12.292 2.489-23.37 2.489-12.04 0-22.086-1.545-32.722-3.182a1701.08 1701.08 0 00-3.259-.499c3.199-2.939 10.287-7.553 21.807-5.42 1.985.367 4.022-.56 5.069-2.309l2.288-3.82c9.22 3.017 18.368 3.612 24.451 3.576zM42.072 3.314l3.88 19.433-4.582-3.671-1.997-8.001a6.54 6.54 0 00-2.858-3.963c1.845-2.56 4.157-3.474 5.556-3.798zM4.801 18.297a3.452 3.452 0 013.444-3.45h4.513c1.607 0 3.195-.259 4.72-.768l11.292-3.77 1.394 6.983a5.111 5.111 0 01-1.06 4.253 5.093 5.093 0 01-3.956 1.875H13.257c-3.333 0-6.34 1.419-8.455 3.683v-8.806zm0 16.73c0-4.67 3.793-8.47 8.455-8.47H25.15a8.211 8.211 0 006.377-3.023 8.242 8.242 0 001.709-6.857l-1.45-7.26.372-.092a3.418 3.418 0 012.608.389 3.43 3.43 0 011.57 2.121l2.124 8.515c.083.333.273.63.541.844l6.057 4.854-2.845 2.85a1.57 1.57 0 001.107 2.678c.4 0 .801-.154 1.107-.46l3.091-3.097 1.87 1.499-2.722 2.726a1.57 1.57 0 001.107 2.678c.4 0 .802-.153 1.107-.46l2.968-2.973 1.87 1.499-2.598 2.602a1.57 1.57 0 001.107 2.678c.4 0 .801-.153 1.107-.46l2.844-2.849 1.87 1.498-2.475 2.48a1.57 1.57 0 001.107 2.677c.4 0 .802-.153 1.107-.46l2.72-2.725 2.477 1.985-3.064 5.115a1.76 1.76 0 01-1.815.837c-3.92-.726-17.38-2.293-26.19 7.937-8.235-1.197-16.955-2.228-27.114-2.412V35.026zm92.067 28.861c0 .048-.027.087-.065.098-3.201.881-12.053 2.93-25.092 2.93-12.056 0-22.117-1.546-32.769-3.183a848.667 848.667 0 00-7.09-1.07 1.564 1.564 0 00-1.79 1.552v2.597a.104.104 0 01-.104.105H3.236a.104.104 0 01-.104-.105V55.116c0-.028.011-.053.034-.076a.117.117 0 01.08-.035c13.583.13 24.608 1.826 35.268 3.466 10.757 1.655 20.917 3.218 33.198 3.218 12.252 0 20.947-1.76 25.04-2.809a.081.081 0 01.076.015c.04.032.04.073.04.09v4.903z"/></mask><path d="M98.748 56.417a3.25 3.25 0 00-.498-.314l-.749-5.25c-.578-4.051-4.066-7.092-8.125-7.092h-.05c-5.709.038-14.21-.506-22.813-3.212a1.569 1.569 0 00-.503-1.729L49.754 25.794l-4.9-24.534A1.566 1.566 0 0043.32-.001c-.239 0-5.891.065-9.653 5.717a1.558 1.558 0 00-.185.386 6.311 6.311 0 00-2.083.18c-3.58.949-14.91 4.821-14.91 4.821-1.204.402-2.46.607-3.73.607H8.247c-3.626 0-6.576 2.955-6.576 6.587v33.98a3.3 3.3 0 00-.708.534A3.225 3.225 0 000 55.115v11.697a3.242 3.242 0 003.236 3.241h26.722a3.242 3.242 0 003.236-3.241v-.781c1.781.265 3.55.537 5.274.802 10.773 1.656 20.949 3.22 33.244 3.22 13.42 0 22.598-2.128 25.921-3.042A3.24 3.24 0 00100 63.888v-4.904a3.228 3.228 0 00-1.252-2.567zm-9.403-9.519h.03c2.51 0 4.668 1.886 5.026 4.398l.68 4.767c-4.249 1.02-12.292 2.489-23.37 2.489-12.04 0-22.086-1.545-32.722-3.182a1701.08 1701.08 0 00-3.259-.499c3.199-2.939 10.287-7.553 21.807-5.42 1.985.367 4.022-.56 5.069-2.309l2.288-3.82c9.22 3.017 18.368 3.612 24.451 3.576zM42.072 3.314l3.88 19.433-4.582-3.671-1.997-8.001a6.54 6.54 0 00-2.858-3.963c1.845-2.56 4.157-3.474 5.556-3.798zM4.801 18.297a3.452 3.452 0 013.444-3.45h4.513c1.607 0 3.195-.259 4.72-.768l11.292-3.77 1.394 6.983a5.111 5.111 0 01-1.06 4.253 5.093 5.093 0 01-3.956 1.875H13.257c-3.333 0-6.34 1.419-8.455 3.683v-8.806zm0 16.73c0-4.67 3.793-8.47 8.455-8.47H25.15a8.211 8.211 0 006.377-3.023 8.242 8.242 0 001.709-6.857l-1.45-7.26.372-.092a3.418 3.418 0 012.608.389 3.43 3.43 0 011.57 2.121l2.124 8.515c.083.333.273.63.541.844l6.057 4.854-2.845 2.85a1.57 1.57 0 001.107 2.678c.4 0 .801-.154 1.107-.46l3.091-3.097 1.87 1.499-2.722 2.726a1.57 1.57 0 001.107 2.678c.4 0 .802-.153 1.107-.46l2.968-2.973 1.87 1.499-2.598 2.602a1.57 1.57 0 001.107 2.678c.4 0 .801-.153 1.107-.46l2.844-2.849 1.87 1.498-2.475 2.48a1.57 1.57 0 001.107 2.677c.4 0 .802-.153 1.107-.46l2.72-2.725 2.477 1.985-3.064 5.115a1.76 1.76 0 01-1.815.837c-3.92-.726-17.38-2.293-26.19 7.937-8.235-1.197-16.955-2.228-27.114-2.412V35.026h0zm92.067 28.861c0 .048-.027.087-.065.098-3.201.881-12.053 2.93-25.092 2.93-12.056 0-22.117-1.546-32.769-3.183a848.667 848.667 0 00-7.09-1.07 1.564 1.564 0 00-1.79 1.552v2.597a.104.104 0 01-.104.105H3.236a.104.104 0 01-.104-.105V55.116c0-.028.011-.053.034-.076a.117.117 0 01.08-.035c13.583.13 24.608 1.826 35.268 3.466 10.757 1.655 20.917 3.218 33.198 3.218 12.252 0 20.947-1.76 25.04-2.809a.081.081 0 01.076.015c.04.032.04.073.04.09v4.903h0z" fill="#000" stroke="#fff" stroke-width="1.2" mask="url(#a)"/></svg>
